X:640
T: Achonry Lasses
T: Gearrchaili\'u Achadh Conaire
S: B.Breathnach: "Ceol Rince na hEireann" II/158
Z: B.Black
L: 1/8
M: 4/4
R: reel
K: G
(3DEF||G2 GB AF F2|dBcA BGAF|GBAF DEFA|dBcA BGAF|
G3B AF F2|d2 cA BGAF|G2 AF DEFA|dBcA BG G2||
gage fddf|eccB cdef|g2 ag fddf|ecAc BG G2|
gbag fddf|eccB cdef|g2 ag (3fga ge|cedc (3Bcd AF||

